X:19086
T:Xiraldilla (CT 452)
R:Xiraldilla
C:Tradicional
S:Música Tradicional Asturiana, (C) Tello & Tito. Asturies, 2001.
S:http://pagina.de/MusTradAst <telloytito@asturies.org>
N:Canción del Corro de Niñas, transcrita en Cuideiru.
O:Cuideiru
A:Asturies
Z:Cancioneru de Torner 452
M:2/4
L:1/8
Q:1/4=160
W:¿Cómo quieres que tenga
W:la cara blanca
W:siendo carbonerillo
W:de Salamanca?
W:Al aire, sí, al airere.
W:Cantan los pajarillos
W:en los árboles;
W:cantaban y decían:
W:leré, leré, leré,
W:cantaban y decían:
W:adios, que yo me iré.
K:C
G
|cc dd|ee Bd|c2 A2|G2 zG|
cc dd|ee Bd|c2 A2|G2 z c|
B2 d2|c3 c|B2 d2|c2 zG|
cc dd|ee Bd|c2 A2|G2 zF|
ED EF|G G2 c|BG AB|c2 zF|
ED EF|G G2 c|BG AB|c2 ||


